X:1
T:Epiphany (Smith), 86.86.887
T:Epiphany (Smith), 86.86.887
T:Robert Frederick Smith, 19th Century
T:Public Domain Courtesy of the Cyber Hymnal™
C:Robert Frederick Smith, 19th Century
Z:Public Domain
Z:Courtesy of the Cyber Hymnal™
%%score ( 1 2 ) ( 3 4 )
L:1/8
Q:1/4=108
M:4/4
K:Bb
V:1 treble 
V:2 treble 
V:3 bass 
V:4 bass 
V:1
 [DF]2 | [EF]2 (G>F) [DF]2 ([FB][FB]) | [EF]2 (G>F) [DF]2 [FB]2 | [EG]2 (AB) [Gc]2 [Ge]2 | %4
 [^Fd]6 [=Fc]2 | [EF]2 (G>F) [DF]2 ([F_A][FA]) | [EG]2 [FB]2 [Ee]2 [Ed]2 | %7
 [Ed]2 (c>A) [Ed]2 (c>A) | [EF]6 [EF]2 | [Dd]2 (c>B) [DF]2 ([EG][EG]) | [FB]2 [EG]2 [DF]4 | %11
 [Dd]2 [Dc]>[DB] [DG]2 [DB]2 | [Cd]2 (A>B) [B,G]2 [Dd]2 | [Df]2 [Ge]>[Fd] [Ec]2 [EF]2 | [DB]6 |] %15
V:2
 x2 | x2 E2 x4 | x2 E2 x4 | x2 E2 x4 | x8 | x2 E2 x4 | x8 | x2 E2 x/ E2 x3/2 | x8 | x2 D2 x4 | x8 | %11
 x8 | x2 C2 x4 | x8 | x6 |] %15
V:3
 B,2 | [A,C]2 [F,A,]2 B,2 ([F,D][F,D]) | [A,C]2 [F,A,]2 B,2 [B,D]2 | %3
 [E,B,]2 [E,G,]2 [E,G,]2 [C,C]2 | [D,A,]6 [F,A,]2 | [A,C]2 [F,A,]2 B,2 ([D,B,][D,B,]) | %6
 [E,B,]2 [D,B,]2 [C,B,]2 [C,B,]2 | [F,A,]2 [F,A,]2 [F,A,]2 [F,A,]2 | [F,A,]6 [F,A,]2 | %9
 [B,,B,]2 [B,,F,]2 [B,,B,]2 ([E,B,][E,B,]) | [D,B,]2 [E,B,]2 B,4 | %11
 [G,,B,]2 [G,,G,]>[G,,G,] [G,,B,]2 [G,,G,]2 | [A,,^F,]2 [D,F,]2 G,2 [G,B,]2 | %13
 [F,B,]2 [F,B,]>[F,B,] [F,B,]2 [F,A,]2 | [B,,B,]6 |] %15
V:4
 B,2 | x4 B,2 x2 | x4 B,2 x2 | x8 | x8 | x4 B,2 x2 | x8 | x8 | x8 | x8 | x4 (B,,2 A,,2) | x8 | %12
 x4 G,2 x2 | x8 | x6 |] %15

